!!!OTL: Liebeshoffnung
!!!ARE: Europa, Mitteleuropa, Deutschland
!!!SCT: A0128B
!!!YEM: Copyright 1995, estate of Helmut Schaffrath.
**kern
*ICvox
*Ivox
!! Mixed meters:  4/2; 6/2
*M4/2
*k[b-]
*F:
{2f
=1
2f
2a
2g
2f
=2
1e
1d}
=3
{1a
=4
*M6/2
2b-
1g
2a
1g
=5
*M4/2
1.f}
{2f
=6
2f
2a
2g
2f
=7
1e
1d}
=8
{1a
=9
*M6/2
2b-
1g
2a
1g
=10
*M4/2
1.f}
{2f
=11
2a
2a
2b-
2b-
=12
1cc
1g}
=13
{1cc
=14
*M6/2
1a
2a
1g
2f
=15
1e
1d
1a
=16
2b-
1g
2a
1g
=17
1.f}
==
!!!AGN: Romanze, Ballade, Lied
!!!ONB: ESAC (Essen Associative Code) Database: ALTDEU
!!!AMT: irregular
!!!AIN: vox
!!!EED: Helmut Schaffrath
!!!EEV: 1.0
*-
